build/img/sprite.svg

<svg xmlns="http://www.w3.org/2000/svg" xmlns:xlink="http://www.w3.org/1999/xlink"><symbol id="icon-fb" viewBox="0 0 12 24">
<path d="M11.5481 0.0049936L8.66986 0C5.43624 0 3.34653 2.31828 3.34653 5.90643V8.62969H0.452578C0.202506 8.62969 0 8.84891 0 9.11932V13.065C0 13.3354 0.202736 13.5544 0.452578 13.5544H3.34653V23.5106C3.34653 23.781 3.54904 24 3.79911 24H7.5749C7.82497 24 8.02748 23.7808 8.02748 23.5106V13.5544H11.4112C11.6613 13.5544 11.8638 13.3354 11.8638 13.065L11.8652 9.11932C11.8652 8.98948 11.8174 8.86514 11.7326 8.77326C11.6479 8.68138 11.5324 8.62969 11.4123 8.62969H8.02748V6.32115C8.02748 5.21157 8.27201 4.64829 9.60873 4.64829L11.5477 4.64755C11.7975 4.64755 12 4.42833 12 4.15817V0.494367C12 0.224462 11.7977 0.00549296 11.5481 0.0049936Z" fill="white"/>
</symbol><symbol id="icon-ig" viewBox="0 0 24 24">
<path d="M17.5034 0H6.49658C2.91431 0 0 2.91431 0 6.49658V17.5036C0 21.0857 2.91431 24 6.49658 24H17.5036C21.0857 24 24 21.0857 24 17.5036V6.49658C24 2.91431 21.0857 0 17.5034 0V0ZM12 18.5623C8.38147 18.5623 5.43768 15.6185 5.43768 12C5.43768 8.38147 8.38147 5.43768 12 5.43768C15.6185 5.43768 18.5623 8.38147 18.5623 12C18.5623 15.6185 15.6185 18.5623 12 18.5623ZM18.7192 6.98529C17.6499 6.98529 16.7802 6.11554 16.7802 5.0462C16.7802 3.97687 17.6499 3.10693 18.7192 3.10693C19.7886 3.10693 20.6585 3.97687 20.6585 5.0462C20.6585 6.11554 19.7886 6.98529 18.7192 6.98529Z" fill="white"/>
<path d="M12.0001 6.84448C9.15753 6.84448 6.84473 9.1571 6.84473 11.9998C6.84473 14.8423 9.15753 17.1552 12.0001 17.1552C14.8428 17.1552 17.1554 14.8423 17.1554 11.9998C17.1554 9.1571 14.8428 6.84448 12.0001 6.84448Z" fill="white"/>
<path d="M18.7186 4.51392C18.4253 4.51392 18.1865 4.75269 18.1865 5.04602C18.1865 5.33936 18.4253 5.57812 18.7186 5.57812C19.0121 5.57812 19.2509 5.33954 19.2509 5.04602C19.2509 4.7525 19.0121 4.51392 18.7186 4.51392Z" fill="white"/>
</symbol><symbol id="icon-ruble"><path fill-rule="evenodd" clip-rule="evenodd" d="M0 17h6v6H0v-6z" fill="#102654"/><path fill-rule="evenodd" clip-rule="evenodd" d="M3.659 28.321V18h6v10.321H21v6H9.659V42h-6v-7.679H0v-6h3.659z" fill="#102654"/><path fill-rule="evenodd" clip-rule="evenodd" d="M18.5 6H10v11h8.5a5.5 5.5 0 100-11zM4 0v23h14.5C24.851 23 30 17.851 30 11.5S24.851 0 18.5 0H4z" fill="#102654"/></symbol><symbol id="icon-vk" viewBox="0 0 24 13">
<path fill-rule="evenodd" clip-rule="evenodd" d="M20.6554 8.26599C21.4515 9.00996 22.2918 9.70992 23.0058 10.5289C23.3212 10.8929 23.6199 11.2684 23.8483 11.6908C24.172 12.2912 23.8788 12.9519 23.3163 12.9878L19.82 12.9863C18.9182 13.0579 18.1988 12.7104 17.5939 12.1203C17.1098 11.6483 16.6615 11.146 16.1961 10.6581C16.0052 10.4587 15.8055 10.2711 15.5669 10.1228C15.0896 9.82623 14.6753 9.91703 14.4025 10.3935C14.1247 10.8781 14.0617 11.4148 14.0344 11.9549C13.997 12.7429 13.7481 12.9501 12.9211 12.9862C11.1537 13.066 9.47629 12.81 7.91806 11.9566C6.54426 11.2043 5.47894 10.1422 4.5517 8.93977C2.74634 6.59842 1.36379 4.02567 0.121208 1.38084C-0.158487 0.784951 0.0460603 0.465084 0.732957 0.453762C1.87358 0.432554 3.01405 0.434063 4.15601 0.452253C4.61959 0.458744 4.92649 0.713249 5.10549 1.13244C5.7226 2.58483 6.47771 3.96665 7.42553 5.24748C7.67794 5.58848 7.93532 5.92948 8.30184 6.16949C8.7073 6.43524 9.01602 6.34716 9.20677 5.91484C9.32781 5.64071 9.3808 5.34544 9.40808 5.05184C9.49845 4.04175 9.51035 3.03338 9.35186 2.02684C9.25455 1.39865 8.88488 0.991982 8.23 0.873108C7.89582 0.8125 7.94558 0.693475 8.10738 0.510898C8.38842 0.196012 8.65274 0 9.17964 0H13.1311C13.7532 0.117516 13.8913 0.385004 13.9765 0.984133L13.9799 5.18536C13.9731 5.4173 14.1009 6.10556 14.5374 6.25908C14.8867 6.36837 15.117 6.10088 15.3265 5.88887C16.2726 4.92776 16.9479 3.79192 17.5511 2.61578C17.8188 2.09861 18.049 1.56153 18.2721 1.02489C18.4373 0.626678 18.6967 0.430742 19.1653 0.439422L22.9684 0.442667C23.0811 0.442667 23.1952 0.444252 23.3044 0.46214C23.9453 0.566675 24.1209 0.830539 23.923 1.42952C23.6111 2.36927 23.0043 3.15241 22.411 3.93917C21.7768 4.77915 21.0985 5.59036 20.4696 6.43532C19.8917 7.20691 19.9376 7.59584 20.6554 8.26599Z" fill="white"/>
</symbol></svg>

<svg xmlns="http://www.w3.org/2000/svg" xmlns:xlink="http://www.w3.org/1999/xlink"><symbol id="icon-fb"><path d="M11.548.005L8.67 0C5.436 0 3.347 2.318 3.347 5.906V8.63H.453c-.25 0-.453.219-.453.49v3.945c0 .27.203.49.453.49h2.894v9.956c0 .27.202.489.452.489h3.776c.25 0 .452-.22.452-.49v-9.956h3.384c.25 0 .453-.219.453-.489l.001-3.946a.51.51 0 00-.132-.346.436.436 0 00-.32-.143H8.026V6.32c0-1.11.245-1.673 1.582-1.673h1.939c.25 0 .452-.22.452-.49V.494c0-.27-.202-.489-.452-.489z" fill="#fff"/></symbol><symbol id="icon-ig"><path d="M17.503 0H6.497A6.504 6.504 0 000 6.497v11.007A6.504 6.504 0 006.497 24h11.007A6.504 6.504 0 0024 17.504V6.497A6.504 6.504 0 0017.503 0zM12 18.562A6.57 6.57 0 015.438 12 6.57 6.57 0 0112 5.438 6.57 6.57 0 0118.562 12 6.57 6.57 0 0112 18.562zm6.72-11.577c-1.07 0-1.94-.87-1.94-1.939 0-1.07.87-1.94 1.94-1.94 1.069 0 1.939.87 1.939 1.94 0 1.07-.87 1.94-1.94 1.94z" fill="#fff"/><path d="M12 6.844A5.161 5.161 0 006.845 12 5.161 5.161 0 0012 17.155 5.161 5.161 0 0017.155 12 5.161 5.161 0 0012 6.844zm6.719-2.33a.533.533 0 10.001 1.066.533.533 0 00-.001-1.066z" fill="#fff"/></symbol><symbol id="icon-ruble"><path fill-rule="evenodd" clip-rule="evenodd" d="M0 17h6v6H0v-6z" fill="#102654"/><path fill-rule="evenodd" clip-rule="evenodd" d="M3.659 28.321V18h6v10.321H21v6H9.659V42h-6v-7.679H0v-6h3.659z" fill="#102654"/><path fill-rule="evenodd" clip-rule="evenodd" d="M18.5 6H10v11h8.5a5.5 5.5 0 100-11zM4 0v23h14.5C24.851 23 30 17.851 30 11.5S24.851 0 18.5 0H4z" fill="#102654"/></symbol><symbol id="icon-vk"><path fill-rule="evenodd" clip-rule="evenodd" d="M20.655 8.266c.796.744 1.637 1.444 2.35 2.263.316.364.615.74.843 1.162.324.6.03 1.26-.532 1.297l-3.496-.002c-.902.072-1.621-.276-2.226-.866-.484-.472-.933-.974-1.398-1.462a3.27 3.27 0 00-.63-.535c-.476-.297-.89-.206-1.164.27-.277.485-.34 1.022-.368 1.562-.037.788-.286.995-1.113 1.031-1.767.08-3.445-.176-5.003-1.03-1.374-.752-2.44-1.814-3.366-3.016C2.746 6.598 1.364 4.026.122 1.38-.159.786.045.466.732.455A97.704 97.704 0 014.156.452c.464.007.77.261.95.68.617 1.453 1.372 2.835 2.32 4.115.252.341.51.682.876.922.405.266.714.178.905-.254.12-.274.174-.57.201-.863.09-1.01.102-2.019-.056-3.025C9.255 1.399 8.885.992 8.23.873c-.334-.06-.284-.18-.123-.362C8.388.196 8.653 0 9.18 0h3.951c.622.118.76.385.845.984l.004 4.201c-.007.232.12.92.557 1.074.35.11.58-.158.79-.37.946-.961 1.62-2.097 2.224-3.273.268-.517.498-1.054.721-1.591.165-.398.425-.594.893-.586l3.803.004c.113 0 .227.001.336.02.641.104.817.368.619.967-.312.94-.919 1.722-1.512 2.51-.634.84-1.313 1.65-1.941 2.495-.578.772-.532 1.16.185 1.831z" fill="#fff"/></symbol></svg>
